;FLAVOR:RepRap
;TIME:8945
;Filament used: 2.3578m
;Layer height: 0.1
;Generated with Cura_SteamEngine 2.5.0
M190 S60
M104 S200
M109 S200
G28 ;Home
G1 Z15.0 F6000 ;Move the platform down 15mm
;Prime the extruder
G92 E0
G1 F200 E3
G92 E0
;LAYER_COUNT:1723
;LAYER:0
M107
G0 F3000 X125.539 Y95.04 Z0.3
G0 X125.835 Y94.696
;TYPE:SKIRT
G1 F1800 X126.72 Y93.811 E0.06244
G1 X127.093 Y93.494 E0.08686
G1 X127.48 Y93.258 E0.10948
G1 X128.598 Y92.689 E0.17206
G1 X129.051 Y92.504 E0.19648
G1 X129.488 Y92.4 E0.21889
G1 X130.726 Y92.203 E0.28143
G1 X131.214 Y92.166 E0.30584
G1 X131.668 Y92.203 E0.32857
G1 X132.906 Y92.4 E0.39111
G1 X133.382 Y92.516 E0.41555
G1 X133.796 Y92.689 E0.43794
G1 X134.914 Y93.258 E0.50052
G1 X135.33 Y93.515 E0.52492
G1 X135.674 Y93.811 E0.54756
G1 X136.559 Y94.696 E0.61
G1 X136.876 Y95.069 E0.63442
G1 X137.112 Y95.456 E0.65704
G1 X137.681 Y96.574 E0.71962
G1 X137.866 Y97.027 E0.74404
G1 X137.97 Y97.464 E0.76645
G1 X138.167 Y98.702 E0.82899
G1 X138.204 Y99.19 E0.8534
G1 X138.167 Y99.645 E0.87618
G1 X137.97 Y100.882 E0.93867
G1 X137.854 Y101.357 E0.96307
G1 X137.681 Y101.771 E0.98545
G1 X137.112 Y102.889 E1.04804
G1 X136.855 Y103.305 E1.07243
G1 X136.559 Y103.649 E1.09507
G1 X135.674 Y104.534 E1.15751
G1 X135.301 Y104.851 E1.18194
G1 X134.916 Y105.086 E1.20444
G1 X133.798 Y105.656 E1.26705
G1 X133.345 Y105.842 E1.29148
G1 X132.904 Y105.946 E1.31408
G1 X131.666 Y106.142 E1.37662
G1 X131.178 Y106.179 E1.40103
G1 X130.728 Y106.142 E1.42356
G1 X129.49 Y105.946 E1.48609
G1 X129.014 Y105.83 E1.51054
G1 X128.596 Y105.656 E1.53312
G1 X127.478 Y105.086 E1.59573
G1 X127.062 Y104.829 E1.62013
G1 X126.72 Y104.534 E1.64266
G1 X125.835 Y103.649 E1.7051
G1 X125.518 Y103.276 E1.72952
G1 X125.282 Y102.889 E1.75214
G1 X124.713 Y101.771 E1.81472
G1 X124.528 Y101.318 E1.83914
G1 X124.424 Y100.882 E1.8615
G1 X124.227 Y99.645 E1.92399
G1 X124.19 Y99.157 E1.94841
G1 X124.227 Y98.702 E1.97118
G1 X124.424 Y97.464 E2.03372
G1 X124.54 Y96.988 E2.05817
G1 X124.713 Y96.574 E2.08055
G1 X125.282 Y95.456 E2.14314
G1 X125.539 Y95.04 E2.16753
G1 X125.835 Y94.696 E2.19017
G0 F3000 X126.118 Y94.979
G1 F1800 X127.003 Y94.094 E2.25262
G1 X127.352 Y93.801 E2.27535
G1 X127.662 Y93.615 E2.29339
G1 X128.78 Y93.046 E2.35597
G1 X129.202 Y92.876 E2.37867
G1 X129.55 Y92.795 E2.39649
G1 X130.788 Y92.598 E2.45904
G1 X131.243 Y92.566 E2.48179
G1 X131.606 Y92.598 E2.49997
G1 X132.844 Y92.795 E2.56251
G1 X133.286 Y92.906 E2.58525
G1 X133.614 Y93.046 E2.60304
G1 X134.732 Y93.615 E2.66563
G1 X135.119 Y93.856 E2.68837
G1 X135.391 Y94.094 E2.7064
G1 X136.276 Y94.979 E2.76885
G1 X136.569 Y95.328 E2.79158
G1 X136.755 Y95.638 E2.80962
G1 X137.324 Y96.756 E2.8722
G1 X137.494 Y97.178 E2.8949
G1 X137.575 Y97.526 E2.91273
G1 X137.772 Y98.764 E2.97527
G1 X137.804 Y99.219 E2.99802
G1 X137.772 Y99.582 E3.0162
G1 X137.575 Y100.819 E3.0787
G1 X137.464 Y101.261 E3.10143
G1 X137.324 Y101.589 E3.11922
G1 X136.755 Y102.707 E3.18181
G1 X136.514 Y103.094 E3.20455
G1 X136.276 Y103.366 E3.22259
G1 X135.391 Y104.251 E3.28503
G1 X135.042 Y104.544 E3.30776
G1 X134.734 Y104.729 E3.32569
G1 X133.616 Y105.299 E3.3883
G1 X133.193 Y105.47 E3.41106
G1 X132.842 Y105.551 E3.42903
G1 X131.604 Y105.747 E3.49156
G1 X131.149 Y105.779 E3.51432
G1 X130.79 Y105.747 E3.5323
G1 X129.552 Y105.551 E3.59483
G1 X129.11 Y105.441 E3.61756
G1 X128.778 Y105.299 E3.63557
G1 X127.66 Y104.729 E3.69818
G1 X127.274 Y104.488 E3.72088
G1 X127.003 Y104.251 E3.73885
G1 X126.118 Y103.366 E3.80129
G1 X125.825 Y103.017 E3.82402
G1 X125.639 Y102.707 E3.84206
G1 X125.07 Y101.589 E3.90464
G1 X124.9 Y101.167 E3.92734
G1 X124.819 Y100.819 E3.94517
G1 X124.622 Y99.582 E4.00766
G1 X124.59 Y99.127 E4.03041
G1 X124.622 Y98.764 E4.0486
G1 X124.819 Y97.526 E4.11114
G1 X124.93 Y97.084 E4.13387
G1 X125.07 Y96.756 E4.15166
G1 X125.639 Y95.638 E4.21425
G1 X125.88 Y95.251 E4.237
G1 X126.118 Y94.979 E4.25503
G0 F3000 X126.4 Y95.261
G1 F1800 X127.285 Y94.376 E4.31747
G1 X127.609 Y94.11 E4.33838
G1 X127.843 Y93.971 E4.35196
G1 X128.961 Y93.402 E4.41455
G1 X129.351 Y93.249 E4.43545
G1 X129.613 Y93.19 E4.44885
G1 X130.851 Y92.993 E4.51139
G1 X131.269 Y92.967 E4.53228
G1 X131.543 Y92.993 E4.54601
G1 X132.781 Y93.19 E4.60855
G1 X133.186 Y93.295 E4.62943
G1 X133.433 Y93.402 E4.64286
G1 X134.551 Y93.971 E4.70544
G1 X134.905 Y94.196 E4.72637
G1 X135.109 Y94.376 E4.73994
G1 X135.994 Y95.261 E4.80238
G1 X136.26 Y95.585 E4.8233
G1 X136.399 Y95.819 E4.83688
G1 X136.968 Y96.937 E4.89946
G1 X137.121 Y97.327 E4.92036
G1 X137.18 Y97.589 E4.93376
G1 X137.377 Y98.827 E4.9963
G1 X137.403 Y99.245 E5.0172
G1 X137.377 Y99.519 E5.03093
G1 X137.18 Y100.756 E5.09342
G1 X137.075 Y101.162 E5.11434
G1 X136.968 Y101.408 E5.12773
G1 X136.399 Y102.526 E5.19031
G1 X136.174 Y102.88 E5.21124
G1 X135.994 Y103.084 E5.22481
G1 X135.109 Y103.969 E5.28725
G1 X134.785 Y104.235 E5.30817
G1 X134.552 Y104.373 E5.32168
G1 X133.434 Y104.943 E5.38429
G1 X133.045 Y105.097 E5.40516
G1 X132.779 Y105.156 E5.41875
G1 X131.541 Y105.352 E5.48129
G1 X131.123 Y105.378 E5.50218
G1 X130.853 Y105.352 E5.51571
G1 X129.615 Y105.156 E5.57825
G1 X129.209 Y105.051 E5.59917
G1 X128.96 Y104.943 E5.61271
G1 X127.842 Y104.373 E5.67532
G1 X127.488 Y104.148 E5.69624
G1 X127.285 Y103.969 E5.70975
G1 X126.4 Y103.084 E5.77219
G1 X126.134 Y102.76 E5.7931
G1 X125.995 Y102.526 E5.80668
G1 X125.426 Y101.408 E5.86927
G1 X125.273 Y101.018 E5.89017
G1 X125.214 Y100.756 E5.90357
G1 X125.017 Y99.519 E5.96606
G1 X124.991 Y99.101 E5.98695
G1 X125.017 Y98.827 E6.00068
G1 X125.214 Y97.589 E6.06322
G1 X125.319 Y97.184 E6.0841
G1 X125.426 Y96.937 E6.09753
G1 X125.995 Y95.819 E6.16011
G1 X126.22 Y95.465 E6.18104
G1 X126.4 Y95.261 E6.19461
G0 F3000 X126.683 Y95.544
G1 F1800 X127.568 Y94.659 E6.25705
G1 X128.025 Y94.328 E6.28521
G1 X129.143 Y93.759 E6.34779
G1 X129.676 Y93.585 E6.37576
G1 X130.914 Y93.388 E6.43831
G1 X131.48 Y93.388 E6.46654
G1 X132.718 Y93.585 E6.52908
G1 X133.251 Y93.759 E6.55706
G1 X134.369 Y94.328 E6.61964
G1 X134.826 Y94.659 E6.64779
G1 X135.711 Y95.544 E6.71024
G1 X136.042 Y96.001 E6.73839
G1 X136.611 Y97.119 E6.80097
G1 X136.785 Y97.652 E6.82895
G1 X136.982 Y98.89 E6.89149
G1 X136.982 Y99.456 E6.91973
G1 X136.785 Y100.693 E6.98222
G1 X136.611 Y101.226 E7.01019
G1 X136.042 Y102.344 E7.07278
G1 X135.711 Y102.801 E7.10093
G1 X134.826 Y103.686 E7.16337
G1 X134.371 Y104.017 E7.19144
G1 X133.253 Y104.587 E7.25405
G1 X132.716 Y104.761 E7.28221
G1 X131.478 Y104.957 E7.34474
G1 X130.916 Y104.957 E7.37278
G1 X129.678 Y104.761 E7.43532
G1 X129.141 Y104.587 E7.46348
G1 X128.023 Y104.017 E7.52609
G1 X127.568 Y103.686 E7.55416
G1 X126.683 Y102.801 E7.6166
G1 X126.352 Y102.344 E7.64475
G1 X125.783 Y101.226 E7.70734
G1 X125.609 Y100.693 E7.73531
G1 X125.412 Y99.456 E7.7978
G1 X125.412 Y98.89 E7.82604
G1 X125.609 Y97.652 E7.88858
G1 X125.783 Y97.119 E7.91655
G1 X126.352 Y96.001 E7.97914
G1 X126.683 Y95.544 E8.00729
G0 F3000 X126.966 Y95.827
G1 F1800 X127.851 Y94.942 E8.06973
G1 X128.206 Y94.684 E8.09163
G1 X129.324 Y94.115 E8.15421
G1 X129.739 Y93.98 E8.17598
G1 X130.977 Y93.783 E8.23852
G1 X131.417 Y93.783 E8.26048
G1 X132.655 Y93.98 E8.32302
G1 X133.07 Y94.115 E8.34479
G1 X134.188 Y94.684 E8.40738
G1 X134.543 Y94.942 E8.42927
G1 X135.428 Y95.827 E8.49171
G1 X135.686 Y96.182 E8.51361
G1 X136.255 Y97.3 E8.57619
G1 X136.39 Y97.715 E8.59796
G1 X136.587 Y98.953 E8.6605
G1 X136.587 Y99.393 E8.68246
G1 X136.39 Y100.63 E8.74495
G1 X136.255 Y101.045 E8.76672
G1 X135.686 Y102.163 E8.82931
G1 X135.428 Y102.518 E8.8512
G1 X134.543 Y103.403 E8.91364
G1 X134.189 Y103.66 E8.93547
G1 X133.071 Y104.23 E8.99807
G1 X132.654 Y104.366 E9.01996
G1 X131.416 Y104.562 E9.08249
G1 X130.978 Y104.562 E9.10434
G1 X129.74 Y104.366 E9.16688
G1 X129.323 Y104.23 E9.18876
G1 X128.205 Y103.66 E9.25137
G1 X127.851 Y103.403 E9.27319
G1 X126.966 Y102.518 E9.33563
G1 X126.708 Y102.163 E9.35753
G1 X126.139 Y101.045 E9.42011
G1 X126.004 Y100.63 E9.44189
G1 X125.807 Y99.393 E9.50438
G1 X125.807 Y98.953 E9.52633
G1 X126.004 Y97.715 E9.58887
G1 X126.139 Y97.3 E9.61064
G1 X126.708 Y96.182 E9.67323
G1 X126.966 Y95.827 E9.69512
G0 F3000 X127.249 Y96.11
G1 F1800 X128.134 Y95.225 E9.75756
G1 X128.387 Y95.041 E9.77317
G1 X129.505 Y94.472 E9.83576
G1 X129.802 Y94.375 E9.85134
G1 X131.04 Y94.178 E9.91389
G1 X131.354 Y94.178 E9.92955
G1 X132.592 Y94.375 E9.99209
G1 X132.889 Y94.472 E10.00768
G1 X134.007 Y95.041 E10.07027
G1 X134.26 Y95.225 E10.08587
G1 X135.145 Y96.11 E10.14831
G1 X135.329 Y96.363 E10.16392
G1 X135.898 Y97.481 E10.22651
G1 X135.995 Y97.778 E10.24209
G1 X136.192 Y99.016 E10.30464
G1 X136.192 Y99.33 E10.3203
G1 X135.995 Y100.567 E10.38279
G1 X135.898 Y100.864 E10.39838
G1 X135.329 Y101.982 E10.46097
G1 X135.145 Y102.235 E10.47657
G1 X134.26 Y103.12 E10.53902
G1 X134.007 Y103.304 E10.55462
G1 X132.889 Y103.874 E10.61723
G1 X132.591 Y103.971 E10.63287
G1 X131.353 Y104.167 E10.6954
G1 X131.041 Y104.167 E10.71097
G1 X129.803 Y103.971 E10.7735
G1 X129.505 Y103.874 E10.78913
G1 X128.387 Y103.304 E10.85174
G1 X128.134 Y103.12 E10.86735
G1 X127.249 Y102.235 E10.92979
G1 X127.065 Y101.982 E10.9454
G1 X126.496 Y100.864 E11.00798
G1 X126.399 Y100.567 E11.02357
G1 X126.202 Y99.33 E11.08606
G1 X126.202 Y99.016 E11.10173
G1 X126.399 Y97.778 E11.16427
G1 X126.496 Y97.481 E11.17986
G1 X127.065 Y96.363 E11.24244
G1 X127.249 Y96.11 E11.25805
G0 F3000 X127.532 Y96.393
G1 F1800 X128.417 Y95.508 E11.32049
G1 X128.569 Y95.397 E11.32988
G1 X129.687 Y94.828 E11.39247
G1 X129.865 Y94.77 E11.40181
G1 X131.103 Y94.573 E11.46435
G1 X131.291 Y94.573 E11.47373
G1 X132.529 Y94.77 E11.53627
G1 X132.707 Y94.828 E11.54561
G1 X133.825 Y95.397 E11.60819
G1 X133.977 Y95.508 E11.61759
G1 X134.862 Y96.393 E11.68003
G1 X134.973 Y96.545 E11.68942
G1 X135.542 Y97.663 E11.752
G1 X135.6 Y97.841 E11.76134
G1 X135.797 Y99.079 E11.82388
G1 X135.797 Y99.267 E11.83326
G1 X135.6 Y100.504 E11.89575
G1 X135.542 Y100.682 E11.90509
G1 X134.973 Y101.8 E11.96768
G1 X134.862 Y101.952 E11.97707
G1 X133.977 Y102.837 E12.03951
G1 X133.826 Y102.948 E12.04886
G1 X132.708 Y103.518 E12.11147
G1 X132.529 Y103.576 E12.12086
G1 X131.291 Y103.772 E12.18339
G1 X131.103 Y103.772 E12.19277
G1 X129.865 Y103.576 E12.2553
G1 X129.686 Y103.518 E12.26469
G1 X128.568 Y102.948 E12.3273
G1 X128.417 Y102.837 E12.33665
G1 X127.532 Y101.952 E12.39909
G1 X127.421 Y101.8 E12.40848
G1 X126.852 Y100.682 E12.47107
G1 X126.794 Y100.504 E12.48041
G1 X126.597 Y99.267 E12.5429
G1 X126.597 Y99.079 E12.55228
G1 X126.794 Y97.841 E12.61482
G1 X126.852 Y97.663 E12.62416
G1 X127.421 Y96.545 E12.68674
G1 X127.532 Y96.393 E12.69613
G0 F3000 X127.815 Y96.676
G1 F1800 X128.7 Y95.791 E12.75858
G1 X128.75 Y95.754 E12.76168
G1 X129.868 Y95.185 E12.82426
G1 X129.928 Y95.165 E12.82742
G1 X131.166 Y94.968 E12.88996
G1 X131.228 Y94.968 E12.89305
G1 X132.466 Y95.165 E12.9556
G1 X132.526 Y95.185 E12.95875
G1 X133.644 Y95.754 E13.02134
G1 X133.694 Y95.791 E13.02444
G1 X134.579 Y96.676 E13.08688
G1 X134.616 Y96.726 E13.08998
G1 X135.185 Y97.844 E13.15257
G1 X135.205 Y97.904 E13.15573
G1 X135.402 Y99.142 E13.21827
G1 X135.402 Y99.204 E13.22136
G1 X135.205 Y100.441 E13.28385
G1 X135.185 Y100.501 E13.28701
G1 X134.616 Y101.619 E13.34959
G1 X134.579 Y101.669 E13.3527
G1 X133.694 Y102.554 E13.41514
G1 X133.644 Y102.591 E13.41824
G1 X132.526 Y103.161 E13.48085
G1 X132.466 Y103.181 E13.484
G1 X131.228 Y103.377 E13.54654
G1 X131.166 Y103.377 E13.54963
G1 X129.928 Y103.181 E13.61216
G1 X129.868 Y103.161 E13.61532
G1 X128.75 Y102.591 E13.67793
G1 X128.7 Y102.554 E13.68103
G1 X127.815 Y101.669 E13.74347
G1 X127.778 Y101.619 E13.74658
G1 X127.209 Y100.501 E13.80916
G1 X127.189 Y100.441 E13.81232
G1 X126.992 Y99.204 E13.87481
G1 X126.992 Y99.142 E13.8779
G1 X127.189 Y97.904 E13.94044
G1 X127.209 Y97.844 E13.9436
G1 X127.778 Y96.726 E14.00618
G1 X127.815 Y96.676 E14.00929
G0 F3000 X128.447 Y97.174
;TYPE:WALL-INNER
G1 F1800 X129.198 Y96.423 E14.06227
G1 X130.145 Y95.94 E14.11531
G1 X131.197 Y95.774 E14.16844
G1 X132.249 Y95.94 E14.22158
G1 X133.196 Y96.423 E14.27461
G1 X133.947 Y97.174 E14.3276
G1 X134.43 Y98.121 E14.38064
G1 X134.596 Y99.173 E14.43377
G1 X134.43 Y100.224 E14.48686
G1 X133.947 Y101.171 E14.53989
G1 X133.195 Y101.923 E14.59295
G1 X132.249 Y102.406 E14.64594
G1 X131.197 Y102.571 E14.69907
G1 X130.145 Y102.406 E14.75219
G1 X129.199 Y101.923 E14.80519
G1 X128.447 Y101.171 E14.85824
G1 X127.964 Y100.224 E14.91128
G1 X127.798 Y99.173 E14.96436
G1 X127.964 Y98.121 E15.0175
G1 X128.447 Y97.174 E15.07053
G0 F3000 X128.12 Y96.935
;TYPE:WALL-OUTER
G1 F1800 X128.959 Y96.096 E15.12973
G1 X130.02 Y95.555 E15.18915
G1 X131.197 Y95.369 E15.2486
G1 X132.374 Y95.555 E15.30805
G1 X133.435 Y96.096 E15.36746
G1 X134.274 Y96.935 E15.42666
G1 X134.815 Y97.996 E15.48608
G1 X135.001 Y99.173 E15.54553
G1 X134.815 Y100.349 E15.60493
G1 X134.274 Y101.41 E15.66435
G1 X133.434 Y102.25 E15.72361
G1 X132.374 Y102.791 E15.78299
G1 X131.197 Y102.976 E15.84243
G1 X130.02 Y102.791 E15.90187
G1 X128.96 Y102.25 E15.96124
G1 X128.12 Y101.41 E16.02051
G1 X127.579 Y100.349 E16.07993
G1 X127.393 Y99.173 E16.13933
G1 X127.579 Y97.996 E16.19878
G1 X128.12 Y96.935 E16.25819
G0 F3000 X128.261 Y96.794
G0 X128.706 Y97.027
;TYPE:SKIN
G1 F1800 X133.341 Y101.662 E16.58522
G1 X133.411 Y101.732
G0 F3000 X133.624 Y101.38
G1 F1800 X128.989 Y96.744 E16.91228
G1 X128.919 Y96.674
G0 F3000 X129.281 Y96.471
G1 F1800 X133.898 Y101.088 E17.23803
G1 X133.968 Y101.158
G0 F3000 X134.09 Y100.714
G1 F1800 X129.655 Y96.279 E17.55094
G1 X129.585 Y96.209
G0 F3000 X130.029 Y96.088
G1 F1800 X134.281 Y100.34 E17.85095
G1 X134.351 Y100.41
G0 F3000 X134.4 Y99.893
G1 F1800 X130.475 Y95.968 E18.12788
G1 X130.405 Y95.898
G0 F3000 X130.965 Y95.892
G1 F1800 X134.476 Y99.404 E18.37563
G1 X134.546 Y99.474
G0 F3000 X134.457 Y98.819
G1 F1800 X131.55 Y95.911 E18.58077
G1 X131.48 Y95.841
G0 F3000 X132.22 Y96.016
G1 F1800 X134.353 Y98.149 E18.73127
G1 X134.423 Y98.219
G0 F3000 X134.346 Y98.229
G0 X133.022 Y101.899
G0 X133.029 Y101.916
G1 F1800 X128.451 Y97.338 E19.05427
G1 X128.381 Y97.268
G0 F3000 X128.259 Y97.712
G1 F1800 X132.654 Y102.107 E19.36436
G1 X132.724 Y102.177
G0 F3000 X132.28 Y102.299
G1 F1800 X128.068 Y98.087 E19.66154
G1 X127.998 Y98.017
G0 F3000 X127.974 Y98.558
G1 F1800 X131.808 Y102.393 E19.93208
G1 X131.878 Y102.463
G0 F3000 X131.318 Y102.468
G1 F1800 X127.897 Y99.047 E20.17345
G1 X127.827 Y98.977
G0 F3000 X127.956 Y99.672
G1 F1800 X130.694 Y102.41 E20.36663
G1 X130.764 Y102.48
G0 F3000 X129.921 Y102.203
G1 F1800 X128.165 Y100.446 E20.49056
G1 X128.095 Y100.376
G0 F3000 X128.41 Y100.218
G0 X128.535 Y97.22
G0 X128.444 Y97.173
;TIME_ELAPSED:17.540855
;LAYER:1
M140 S60
M106 S255
G0 F4500 X128.444 Y97.173 Z0.4
;TYPE:WALL-INNER
G1 F1545.5 X129.197 Y96.42 E20.50827
G1 X130.144 Y95.937 E20.52595
G1 X131.197 Y95.771 E20.54368
G1 X132.25 Y95.937 E20.56141
G1 X133.197 Y96.42 E20.57909
G1 X133.95 Y97.173 E20.5968
G1 X134.433 Y98.12 E20.61448
G1 X134.599 Y99.173 E20.6322
G1 X134.433 Y100.225 E20.64991
G1 X133.95 Y101.172 E20.66759
G1 X133.197 Y101.925 E20.6853
G1 X132.25 Y102.409 E20.70299
G1 X131.197 Y102.574 E20.72071
G1 X130.144 Y102.409 E20.73844
G1 X129.197 Y101.925 E20.75613
G1 X128.444 Y101.172 E20.77383
G1 X127.961 Y100.225 E20.79151
G1 X127.795 Y99.173 E20.80922
G1 X127.961 Y98.12 E20.82695
G1 X128.444 Y97.173 E20.84463
G0 F4500 X128.117 Y96.934
;TYPE:WALL-OUTER
G1 F1545.5 X128.958 Y96.093 E20.86441
G1 X130.019 Y95.552 E20.88422
G1 X131.197 Y95.366 E20.90405
G1 X132.375 Y95.552 E20.92388
G1 X133.436 Y96.093 E20.94369
G1 X134.277 Y96.934 E20.96347
G1 X134.818 Y97.995 E20.98327
G1 X135.004 Y99.173 E21.00311
G1 X134.818 Y100.35 E21.02292
G1 X134.277 Y101.411 E21.04273
G1 X133.436 Y102.252 E21.06251
G1 X132.375 Y102.794 E21.08232
G1 X131.197 Y102.979 E21.10215
G1 X130.019 Y102.794 E21.12198
G1 X128.958 Y102.252 E21.14179
G1 X128.117 Y101.411 E21.16157
G1 X127.576 Y100.35 E21.18138
G1 X127.39 Y99.173 E21.2012
G1 X127.576 Y97.995 E21.22103
G1 X128.117 Y96.934 E21.24083
G0 F4500 X128.258 Y96.793
G0 X128.02 Y98.253
;TYPE:SKIN
G1 F1686.1 X130.277 Y95.996 E21.29392
G1 X130.347 Y95.926
G0 F4500 X130.948 Y95.891
